;Sliced by ideaMaker 4.3.3.6560, 2023-12-04 00:14:32 UTC-0600
;Dimension: 180.000 180.000 180.000 0.400
;Plate Shape: 0
;Origin Center: 0
;Extruder Offset #1: 25.000 0.000
;Filament Diameter #1: 1.750
;Filament Diameter #2: 1.750
;Filament Compensation #1: 94.00
;Filament Compensation #2: 90.00
;Filament Density #1: 1240.00
;Filament Density #2: 1240.00
;Filament Type #1: PLA
;Filament Type #2: 
;Filament Name #1: [Sunlu] CF PLA 1.75mm
;Filament Name #2: 
;Firmware: Marlin
;Bounding Box: 75.820 104.180 75.820 104.180 0.000 5.520
;Model Gap: 0.000
M221 T0 S94.00
M140 S60.00
M104 T0 S210.00
M109 T0 S210.00
T0
M190 S60.00
G28              			; home all axes
M83            			; set extrusion to relative
M117 Purge extruder
G1 Z5 F3000            		; raise Z
G1 X5 Y5 Z0.2 F3000          	; go intro start pos
G1 X60 E9 F800        		; thick line
G1 X90 E5 F1000          		; medium line
G1 X120 E3.5 F1200        	  	; slim line
G1 X118 E-0.2 Z0.5 F1500        	; wipe
G92 E0              		; reset extruder
;TOTAL_NUM: 1
;PRINTING_TIME: 0
;REMAINING_TIME: 736
M83
;LAYER:0
;Z:0.200
;HEIGHT:0.200
M106 S0
;PRINTING: NON-OBJECT
;PRINTING_ID: -1
G1 F1200 E-0.4000
M204 S1300.00
M205 X7.00 Y7.00
G0 F6000 X76.649 Y77.363
G0 F900 Z0.200
G0 F6000 X76.719 Y77.434
M204 S1000.00
;TYPE:SKIRT
;WIDTH:0.440
G1 F1200 E0.4000
G1 F1800 X77.392 Y76.765 E0.0347
G1 X78.132 Y76.283 E0.0323
G1 X78.265 Y76.221 E0.0054
G1 X79.037 Y75.953 E0.0299
G1 X80.000 Y75.820 E0.0356
G1 X100.060 Y75.824 E0.7339
G1 X100.860 Y75.928 E0.0295
G1 X101.625 Y76.169 E0.0293
G1 X102.356 Y76.574 E0.0306
G1 X102.968 Y77.082 E0.0291
G1 X103.428 Y77.648 E0.0267
G1 X103.804 Y78.321 E0.0282
G1 X104.058 Y79.076 E0.0291
G1 X104.165 Y79.770 E0.0257
G1 X104.180 Y100.000 E0.7401
G1 X104.077 Y100.826 E0.0305
G1 X103.928 Y101.380 E0.0210
G1 X103.590 Y102.100 E0.0291
G1 X103.281 Y102.566 E0.0205
G1 X102.608 Y103.235 E0.0347
G1 X101.868 Y103.717 E0.0323
G1 X101.735 Y103.779 E0.0054
G1 X100.963 Y104.047 E0.0299
G1 X100.000 Y104.180 E0.0356
G1 X80.000 Y104.180 E0.7317
G1 X79.174 Y104.077 E0.0305
G1 X78.620 Y103.928 E0.0210
G1 X77.900 Y103.590 E0.0291
G1 X77.434 Y103.281 E0.0205
G1 X76.765 Y102.608 E0.0347
G1 X76.283 Y101.868 E0.0323
G1 X76.221 Y101.735 E0.0054
G1 X75.953 Y100.963 E0.0299
G1 X75.820 Y100.000 E0.0356
G1 X75.820 Y80.000 E0.7317
G1 X75.923 Y79.174 E0.0305
G1 X76.072 Y78.620 E0.0210
G1 X76.410 Y77.900 E0.0291
G1 X76.664 Y77.517 E0.0168
G0 F1800 X76.719 Y77.434
M204 S1300.00
G0 F6000 X76.794 Y77.992
G0 F6000 X76.807 Y78.091
M204 S1000.00
G1 F1800 X77.084 Y77.679 E0.0182
G1 X77.699 Y77.080 E0.0314
G1 X78.325 Y76.678 E0.0272
G1 X78.409 Y76.637 E0.0034
G1 X79.181 Y76.369 E0.0299
G1 X80.000 Y76.260 E0.0302
G1 X100.060 Y76.264 E0.7339
G1 X100.801 Y76.364 E0.0274
G1 X101.415 Y76.556 E0.0235
G1 X102.078 Y76.915 E0.0276
G1 X102.629 Y77.363 E0.0260
G1 X103.044 Y77.863 E0.0238
G1 X103.420 Y78.536 E0.0282
G1 X103.640 Y79.212 E0.0260
G1 X103.730 Y79.833 E0.0230
G1 X103.740 Y100.000 E0.7378
G1 X103.641 Y100.770 E0.0284
G1 X103.504 Y101.262 E0.0187
G1 X103.193 Y101.909 E0.0263
G1 X102.916 Y102.321 E0.0182
G1 X102.301 Y102.920 E0.0314
G1 X101.675 Y103.322 E0.0272
G1 X101.591 Y103.363 E0.0034
G1 X100.819 Y103.631 E0.0299
G1 X100.000 Y103.740 E0.0302
G1 X80.000 Y103.740 E0.7317
G1 X79.230 Y103.641 E0.0284
G1 X78.738 Y103.504 E0.0187
G1 X78.091 Y103.193 E0.0263
G1 X77.679 Y102.916 E0.0182
G1 X77.080 Y102.301 E0.0314
G1 X76.678 Y101.675 E0.0272
G1 X76.637 Y101.591 E0.0034
G1 X76.369 Y100.819 E0.0299
G1 X76.260 Y100.000 E0.0302
G1 X76.260 Y80.000 E0.7317
G1 X76.359 Y79.230 E0.0284
G1 X76.496 Y78.738 E0.0187
G1 X76.764 Y78.181 E0.0226
G0 F1800 X76.807 Y78.091
M204 S1300.00
G0 F6000 X77.113 Y78.241
G0 F6000 X77.202 Y78.285
M204 S1000.00
G1 F1800 X77.447 Y77.928 E0.0158
G1 X78.003 Y77.398 E0.0281
G1 X78.558 Y77.051 E0.0239
G1 X79.241 Y76.805 E0.0266
G1 X80.000 Y76.700 E0.0280
G1 X100.060 Y76.704 E0.7339
G1 X100.739 Y76.800 E0.0251
G1 X101.279 Y76.975 E0.0208
G1 X101.864 Y77.300 E0.0245
G1 X102.290 Y77.644 E0.0200
G1 X102.705 Y78.144 E0.0238
G1 X103.034 Y78.747 E0.0251
G1 X103.220 Y79.343 E0.0228
G1 X103.294 Y79.892 E0.0203
G1 X103.300 Y100.000 E0.7357
G1 X103.205 Y100.712 E0.0263
G1 X103.081 Y101.139 E0.0163
G1 X102.798 Y101.715 E0.0235
G1 X102.553 Y102.072 E0.0158
G1 X101.997 Y102.602 E0.0281
G1 X101.442 Y102.949 E0.0239
G1 X100.759 Y103.195 E0.0266
G1 X100.000 Y103.300 E0.0280
G1 X80.000 Y103.300 E0.7317
G1 X79.288 Y103.205 E0.0263
G1 X78.861 Y103.081 E0.0163
G1 X78.285 Y102.798 E0.0235
G1 X77.928 Y102.553 E0.0158
G1 X77.398 Y101.997 E0.0281
G1 X77.051 Y101.442 E0.0239
G1 X76.805 Y100.759 E0.0266
G1 X76.700 Y100.000 E0.0280
G1 X76.700 Y80.000 E0.7317
G1 X76.795 Y79.288 E0.0263
G1 X76.919 Y78.861 E0.0163
G1 X77.158 Y78.374 E0.0198
G0 F1800 X77.202 Y78.285
M204 S1300.00
G0 F6000 X77.506 Y78.438
G0 F6000 X77.595 Y78.483
M204 S1000.00
G1 F1800 X77.807 Y78.181 E0.0135
G1 X78.303 Y77.720 E0.0248
G1 X78.786 Y77.427 E0.0207
G1 X79.384 Y77.221 E0.0231
G1 X80.000 Y77.140 E0.0227
G1 X100.060 Y77.144 E0.7339
G1 X100.674 Y77.235 E0.0227
G1 X101.138 Y77.392 E0.0179
G1 X101.646 Y77.682 E0.0214
G1 X102.010 Y77.983 E0.0173
G1 X102.319 Y78.355 E0.0177
G1 X102.648 Y78.958 E0.0251
G1 X102.798 Y79.467 E0.0194
G1 X102.857 Y79.946 E0.0177
G1 X102.860 Y100.000 E0.7337
G1 X102.782 Y100.589 E0.0217
G1 X102.658 Y101.016 E0.0163
G1 X102.405 Y101.517 E0.0205
G1 X102.193 Y101.819 E0.0135
G1 X101.697 Y102.280 E0.0248
G1 X101.214 Y102.573 E0.0207
G1 X100.616 Y102.779 E0.0231
G1 X100.000 Y102.860 E0.0227
G1 X80.000 Y102.860 E0.7317
G1 X79.411 Y102.782 E0.0217
G1 X78.984 Y102.658 E0.0163
G1 X78.483 Y102.405 E0.0205
G1 X78.181 Y102.193 E0.0135
G1 X77.720 Y101.697 E0.0248
G1 X77.427 Y101.214 E0.0207
G1 X77.221 Y100.616 E0.0231
G1 X77.140 Y100.000 E0.0227
G1 X77.140 Y80.000 E0.7317
G1 X77.218 Y79.411 E0.0217
G1 X77.342 Y78.984 E0.0163
G1 X77.550 Y78.572 E0.0169
G0 F1800 X77.595 Y78.483
M204 S1300.00
G0 F6000 X77.897 Y78.641
G0 F6000 X77.985 Y78.687
M204 S1000.00
G1 F1800 X78.164 Y78.438 E0.0112
G1 X78.598 Y78.047 E0.0214
G1 X79.008 Y77.807 E0.0174
G1 X79.521 Y77.639 E0.0197
G1 X80.000 Y77.580 E0.0177
G1 X100.060 Y77.584 E0.7339
G1 X100.605 Y77.670 E0.0202
G1 X100.991 Y77.807 E0.0150
G1 X101.423 Y78.061 E0.0183
G1 X101.724 Y78.318 E0.0145
G1 X101.976 Y78.631 E0.0147
G1 X102.260 Y79.165 E0.0221
G1 X102.361 Y79.521 E0.0135
G1 X102.420 Y80.000 E0.0177
G1 X102.420 Y100.000 E0.7317
G1 X102.346 Y100.528 E0.0195
G1 X102.237 Y100.889 E0.0138
G1 X102.015 Y101.313 E0.0175
G1 X101.836 Y101.562 E0.0112
G1 X101.402 Y101.953 E0.0214
G1 X100.992 Y102.193 E0.0174
G1 X100.479 Y102.361 E0.0197
G1 X100.000 Y102.420 E0.0177
G1 X80.000 Y102.420 E0.7317
G1 X79.472 Y102.346 E0.0195
G1 X79.111 Y102.237 E0.0138
G1 X78.687 Y102.015 E0.0175
G1 X78.438 Y101.836 E0.0112
G1 X78.047 Y101.402 E0.0214
G1 X77.807 Y100.992 E0.0174
G1 X77.639 Y100.479 E0.0197
G1 X77.580 Y100.000 E0.0177
G1 X77.580 Y80.000 E0.7317
G1 X77.654 Y79.472 E0.0195
G1 X77.763 Y79.111 E0.0138
G1 X77.939 Y78.775 E0.0139
G0 F1800 X77.985 Y78.687
M204 S1300.00
G0 F6000 X78.284 Y78.850
G0 F6000 X78.371 Y78.897
M204 S1000.00
G1 F1800 X78.517 Y78.701 E0.0089
G1 X78.887 Y78.378 E0.0180
G1 X79.222 Y78.191 E0.0140
G1 X79.578 Y78.075 E0.0137
G1 X80.000 Y78.020 E0.0156
G1 X100.060 Y78.024 E0.7339
G1 X100.531 Y78.104 E0.0175
G1 X100.836 Y78.219 E0.0119
G1 X101.195 Y78.437 E0.0154
G1 X101.432 Y78.647 E0.0116
G1 X101.591 Y78.844 E0.0093
G1 X101.839 Y79.291 E0.0187
G1 X101.925 Y79.578 E0.0110
G1 X101.980 Y80.000 E0.0156
G1 X101.980 Y100.000 E0.7317
G1 X101.911 Y100.463 E0.0171
G1 X101.818 Y100.756 E0.0112
G1 X101.629 Y101.103 E0.0145
G1 X101.483 Y101.299 E0.0089
G1 X101.113 Y101.622 E0.0180
G1 X100.778 Y101.809 E0.0140
G1 X100.422 Y101.925 E0.0137
G1 X100.000 Y101.980 E0.0156
G1 X80.000 Y101.980 E0.7317
G1 X79.537 Y101.911 E0.0171
G1 X79.244 Y101.818 E0.0112
G1 X78.897 Y101.629 E0.0145
G1 X78.701 Y101.483 E0.0089
G1 X78.378 Y101.113 E0.0180
G1 X78.191 Y100.778 E0.0140
G1 X78.075 Y100.422 E0.0137
G1 X78.020 Y100.000 E0.0156
G1 X78.020 Y80.000 E0.7317
G1 X78.089 Y79.537 E0.0171
G1 X78.182 Y79.244 E0.0112
G1 X78.324 Y78.984 E0.0108
G0 F1800 X78.371 Y78.897
M204 S1300.00
G0 F6000 X78.666 Y79.066
G0 F6000 X78.753 Y79.115
M204 S1000.00
G1 F1800 X78.865 Y78.970 E0.0067
G1 X79.169 Y78.716 E0.0145
G1 X79.427 Y78.580 E0.0107
G1 X79.640 Y78.511 E0.0082
G1 X80.000 Y78.460 E0.0133
G1 X100.060 Y78.464 E0.7339
G1 X100.376 Y78.516 E0.0117
G1 X100.681 Y78.631 E0.0119
G1 X100.958 Y78.808 E0.0120
G1 X101.133 Y78.970 E0.0087
G1 X101.210 Y79.064 E0.0044
G1 X101.420 Y79.427 E0.0153
G1 X101.489 Y79.640 E0.0082
G1 X101.540 Y80.000 E0.0133
G1 X101.540 Y100.000 E0.7317
G1 X101.477 Y100.394 E0.0146
G1 X101.402 Y100.613 E0.0085
G1 X101.247 Y100.885 E0.0115
G1 X101.135 Y101.030 E0.0067
G1 X100.831 Y101.284 E0.0145
G1 X100.573 Y101.420 E0.0107
G1 X100.360 Y101.489 E0.0082
G1 X100.000 Y101.540 E0.0133
G1 X80.000 Y101.540 E0.7317
G1 X79.606 Y101.477 E0.0146
G1 X79.387 Y101.402 E0.0085
G1 X79.115 Y101.247 E0.0115
G1 X78.970 Y101.135 E0.0067
G1 X78.716 Y100.831 E0.0145
G1 X78.580 Y100.573 E0.0107
G1 X78.511 Y100.360 E0.0082
G1 X78.460 Y100.000 E0.0133
G1 X78.460 Y80.000 E0.7317
G1 X78.523 Y79.606 E0.0146
G1 X78.598 Y79.387 E0.0085
G1 X78.704 Y79.201 E0.0078
G0 F1800 X78.753 Y79.115
M204 S1300.00
G0 F6000 X79.046 Y79.290
G0 F6000 X79.131 Y79.341
M204 S1000.00
G1 F1800 X79.207 Y79.247 E0.0044
G1 X79.382 Y79.101 E0.0083
G1 X79.576 Y78.994 E0.0081
G1 X79.709 Y78.946 E0.0052
G1 X80.000 Y78.900 E0.0108
G1 X100.060 Y78.904 E0.7339
G1 X100.232 Y78.932 E0.0064
G1 X100.455 Y79.009 E0.0086
G1 X100.659 Y79.131 E0.0087
G1 X100.834 Y79.293 E0.0087
G1 X101.006 Y79.576 E0.0121
G1 X101.054 Y79.709 E0.0052
G1 X101.100 Y80.000 E0.0108
G1 X101.100 Y100.000 E0.7317
G1 X101.044 Y100.317 E0.0118
G1 X100.991 Y100.455 E0.0054
G1 X100.869 Y100.659 E0.0087
G1 X100.793 Y100.753 E0.0044
G1 X100.618 Y100.899 E0.0083
G1 X100.424 Y101.006 E0.0081
G1 X100.291 Y101.054 E0.0052
G1 X100.000 Y101.100 E0.0108
G1 X80.000 Y101.100 E0.7317
G1 X79.683 Y101.044 E0.0118
G1 X79.545 Y100.991 E0.0054
G1 X79.341 Y100.869 E0.0087
G1 X79.247 Y100.793 E0.0044
G1 X79.101 Y100.618 E0.0083
G1 X78.994 Y100.424 E0.0081
G1 X78.946 Y100.291 E0.0052
G1 X78.900 Y100.000 E0.0108
G1 X78.900 Y80.000 E0.7317
G1 X78.956 Y79.683 E0.0118
G1 X79.009 Y79.545 E0.0054
G1 X79.080 Y79.427 E0.0050
G0 F1800 X79.131 Y79.341
M204 S1300.00
G0 F6000 X79.500 Y79.457
G0 F6000 X79.595 Y79.486
M204 S1000.00
G1 F1800 X79.789 Y79.379 E0.0081
G1 X80.000 Y79.340 E0.0079
G1 X100.000 Y79.340 E0.7317
G1 X100.116 Y79.356 E0.0043
G1 X100.229 Y79.387 E0.0043
G1 X100.433 Y79.509 E0.0087
G1 X100.514 Y79.595 E0.0043
G1 X100.621 Y79.789 E0.0081
G1 X100.660 Y80.000 E0.0079
G1 X100.660 Y100.000 E0.7317
G1 X100.613 Y100.229 E0.0086
G1 X100.491 Y100.433 E0.0087
G1 X100.405 Y100.514 E0.0043
G1 X100.211 Y100.621 E0.0081
G1 X100.000 Y100.660 E0.0079
G1 X80.000 Y100.660 E0.7317
G1 X79.771 Y100.613 E0.0086
G1 X79.567 Y100.491 E0.0087
G1 X79.486 Y100.405 E0.0043
G1 X79.379 Y100.211 E0.0081
G1 X79.340 Y100.000 E0.0079
G1 X79.340 Y80.000 E0.7317
G1 X79.387 Y79.771 E0.0086
G1 X79.509 Y79.567 E0.0087
G1 X79.523 Y79.554 E0.0007
G0 F1800 X79.595 Y79.486
M204 S1300.00
G0 F6000 X79.919 Y79.722
G0 F6000 X80.000 Y79.780
M204 S1000.00
G1 F1800 X100.000 Y79.780 E0.7317
G1 X100.113 Y79.811 E0.0043
G1 X100.194 Y79.897 E0.0043
G1 X100.220 Y80.000 E0.0039
G1 X100.220 Y100.000 E0.7317
G1 X100.189 Y100.113 E0.0043
G1 X100.103 Y100.194 E0.0043
G1 X100.000 Y100.220 E0.0039
G1 X80.000 Y100.220 E0.7317
G1 X79.887 Y100.189 E0.0043
G1 X79.806 Y100.103 E0.0043
G1 X79.780 Y100.000 E0.0039
G1 X79.780 Y80.000 E0.7317
G1 X79.811 Y79.887 E0.0043
G1 X79.897 Y79.806 E0.0043
G1 X79.903 Y79.804 E0.0002
G0 F1800 X80.000 Y79.780
;PRINTING: Part 1
;PRINTING_ID: 0
G1 F1200 E-0.4000
M204 S1300.00
G0 F6000 X99.270 Y99.269
G0 F6000 X99.340 Y99.340
M204 S1000.00
;TYPE:WALL-INNER
;WIDTH:0.440
G1 F1200 E0.4000
G1 F1800 X80.660 Y99.340 E0.6834
G1 X80.660 Y80.660 E0.6834
G1 X99.340 Y80.660 E0.6834
G1 X99.340 Y99.240 E0.6798
G0 F1800 X99.340 Y99.340
G1 F1200 E-0.4000
M204 S1300.00
G0 F6000 X99.710 Y99.710
G0 F6000 X99.780 Y99.780
M204 S1000.00
;TYPE:WALL-OUTER
;WIDTH:0.440
G1 F1200 E0.4000
G1 F1800 X80.220 Y99.780 E0.7156
G1 X80.220 Y80.220 E0.7156
G1 X99.780 Y80.220 E0.7156
G1 X99.780 Y99.680 E0.7120
G0 F1800 X99.780 Y99.780
M204 S1300.00
G0 X99.680 Y99.780
G0 F1800 X99.580 Y99.780
G1 F1200 E-0.4000
G0 F6000 X99.580 Y99.680
G0 X89.918 Y94.057
G0 F6000 X89.832 Y94.007
M204 S1000.00
;TYPE:WALL-INNER
;WIDTH:0.440
G1 F1200 E0.4000
G1 F1800 X90.341 Y93.997 E0.0186
G1 X90.696 Y93.951 E0.0131
G1 X91.038 Y93.874 E0.0128
G1 X91.371 Y93.769 E0.0128
G1 X91.695 Y93.636 E0.0128
G1 X92.015 Y93.469 E0.0132
G1 X92.435 Y93.186 E0.0185
G1 X92.715 Y92.952 E0.0134
G1 X93.068 Y92.584 E0.0187
G1 X93.284 Y92.300 E0.0131
G1 X93.474 Y92.006 E0.0128
G1 X93.640 Y91.687 E0.0132
G1 X93.823 Y91.214 E0.0186
G1 X93.916 Y90.867 E0.0131
G1 X93.976 Y90.523 E0.0128
G1 X94.007 Y90.168 E0.0130
G1 X93.997 Y89.659 E0.0186
G1 X93.951 Y89.304 E0.0131
G1 X93.874 Y88.962 E0.0128
G1 X93.769 Y88.629 E0.0128
G1 X93.636 Y88.306 E0.0128
G1 X93.469 Y87.987 E0.0132
G1 X93.187 Y87.566 E0.0185
G1 X92.952 Y87.285 E0.0134
G1 X92.584 Y86.932 E0.0187
G1 X92.300 Y86.716 E0.0131
G1 X92.006 Y86.526 E0.0128
G1 X91.687 Y86.361 E0.0131
G1 X91.214 Y86.177 E0.0186
G1 X90.867 Y86.084 E0.0131
G1 X90.523 Y86.024 E0.0128
G1 X90.168 Y85.993 E0.0130
G1 X89.659 Y86.003 E0.0186
G1 X89.304 Y86.049 E0.0131
G1 X88.962 Y86.126 E0.0128
G1 X88.627 Y86.231 E0.0128
G1 X88.306 Y86.365 E0.0127
G1 X87.987 Y86.530 E0.0131
G1 X87.565 Y86.814 E0.0186
G1 X87.285 Y87.048 E0.0134
G1 X86.932 Y87.416 E0.0187
G1 X86.716 Y87.700 E0.0131
G1 X86.526 Y87.995 E0.0128
G1 X86.361 Y88.314 E0.0131
G1 X86.177 Y88.786 E0.0185
G1 X86.084 Y89.133 E0.0131
G1 X86.024 Y89.476 E0.0127
G1 X85.992 Y89.835 E0.0132
G1 X86.003 Y90.342 E0.0186
G1 X86.049 Y90.696 E0.0131
G1 X86.126 Y91.038 E0.0128
G1 X86.231 Y91.372 E0.0128
G1 X86.365 Y91.695 E0.0128
G1 X86.530 Y92.013 E0.0131
G1 X86.814 Y92.435 E0.0186
G1 X87.048 Y92.715 E0.0134
G1 X87.416 Y93.068 E0.0187
G1 X87.700 Y93.284 E0.0131
G1 X87.994 Y93.474 E0.0128
G1 X88.314 Y93.640 E0.0132
G1 X88.786 Y93.823 E0.0185
G1 X89.133 Y93.916 E0.0131
G1 X89.477 Y93.976 E0.0128
G1 X89.733 Y93.999 E0.0094
G0 F1800 X89.832 Y94.007
G1 F1200 E-0.4000
M204 S1300.00
G0 F6000 X89.844 Y93.667
G0 F6000 X89.847 Y93.567
M204 S1000.00
;TYPE:WALL-OUTER
;WIDTH:0.440
G1 F1200 E0.4000
G1 F1800 X90.308 Y93.558 E0.0169
G1 X90.619 Y93.517 E0.0115
G1 X90.924 Y93.449 E0.0114
G1 X91.221 Y93.355 E0.0114
G1 X91.509 Y93.237 E0.0114
G1 X91.789 Y93.090 E0.0116
G1 X92.170 Y92.834 E0.0168
G1 X92.414 Y92.630 E0.0116
G1 X92.733 Y92.297 E0.0169
G1 X92.924 Y92.047 E0.0115
G1 X93.093 Y91.785 E0.0114
G1 X93.238 Y91.506 E0.0115
G1 X93.404 Y91.077 E0.0168
G1 X93.486 Y90.772 E0.0116
G1 X93.539 Y90.466 E0.0114
G1 X93.567 Y90.153 E0.0115
G1 X93.558 Y89.692 E0.0169
G1 X93.517 Y89.381 E0.0115
G1 X93.449 Y89.076 E0.0114
G1 X93.355 Y88.779 E0.0114
G1 X93.237 Y88.492 E0.0114
G1 X93.090 Y88.212 E0.0116
G1 X92.834 Y87.830 E0.0168
G1 X92.630 Y87.586 E0.0116
G1 X92.297 Y87.267 E0.0169
G1 X92.047 Y87.076 E0.0115
G1 X91.785 Y86.907 E0.0114
G1 X91.506 Y86.763 E0.0115
G1 X91.077 Y86.596 E0.0168
G1 X90.772 Y86.514 E0.0116
G1 X90.466 Y86.461 E0.0114
G1 X90.153 Y86.433 E0.0115
G1 X89.692 Y86.442 E0.0169
G1 X89.381 Y86.483 E0.0115
G1 X89.076 Y86.551 E0.0114
G1 X88.778 Y86.645 E0.0114
G1 X88.492 Y86.764 E0.0113
G1 X88.212 Y86.909 E0.0115
G1 X87.830 Y87.166 E0.0168
G1 X87.586 Y87.370 E0.0116
G1 X87.267 Y87.703 E0.0169
G1 X87.076 Y87.953 E0.0115
G1 X86.907 Y88.215 E0.0114
G1 X86.763 Y88.495 E0.0115
G1 X86.596 Y88.923 E0.0168
G1 X86.514 Y89.228 E0.0116
G1 X86.461 Y89.534 E0.0114
G1 X86.432 Y89.850 E0.0116
G1 X86.442 Y90.308 E0.0168
G1 X86.483 Y90.619 E0.0115
G1 X86.551 Y90.924 E0.0114
G1 X86.645 Y91.221 E0.0114
G1 X86.764 Y91.509 E0.0114
G1 X86.909 Y91.788 E0.0115
G1 X87.166 Y92.170 E0.0168
G1 X87.370 Y92.414 E0.0116
G1 X87.703 Y92.733 E0.0169
G1 X87.953 Y92.924 E0.0115
G1 X88.215 Y93.093 E0.0114
