;Sliced by ideaMaker 4.3.3.6560, 2023-12-03 20:05:21 UTC-0600
;Dimension: 180.000 180.000 180.000 0.400
;Plate Shape: 0
;Origin Center: 0
;Extruder Offset #1: 25.000 0.000
;Filament Diameter #1: 1.750
;Filament Diameter #2: 1.750
;Filament Compensation #1: 94.00
;Filament Compensation #2: 90.00
;Filament Density #1: 1240.00
;Filament Density #2: 1240.00
;Filament Type #1: PLA
;Filament Type #2: 
;Filament Name #1: [Sunlu] CF PLA 1.75mm
;Filament Name #2: 
;Firmware: Marlin
;Bounding Box: 60.435 119.541 42.511 137.500 0.000 8.880
;Model Gap: 0.000
M221 T0 S94.00
M140 S100.00
M104 T0 S240.00
M109 T0 S240.00
T0
M190 S100.00
G28              			; home all axes
M83            			; set extrusion to relative
M117 Purge extruder
G1 Z5 F3000            		; raise Z
G1 X5 Y5 Z0.2 F3000          	; go intro start pos
G1 X60 E9 F800        		; thick line
G1 X90 E5 F1000          		; medium line
G1 X120 E3.5 F1200        	  	; slim line
G1 X118 E-0.2 Z0.5 F1500        	; wipe
G92 E0              		; reset extruder
;TOTAL_NUM: 5
;PRINTING_TIME: 0
;REMAINING_TIME: 4228
M83
;LAYER:0
;Z:0.200
;HEIGHT:0.200
M106 S0
;PRINTING: NON-OBJECT
;PRINTING_ID: -1
G1 F2400 E-0.4000
M204 S1300.00
M205 X7.00 Y7.00
G0 F6000 X64.294 Y50.649
G0 F900 Z0.200
G0 F6000 X64.372 Y50.710
M204 S1000.00
;TYPE:SKIRT
;WIDTH:0.440
G1 F2400 E0.4000
G1 F1800 X66.127 Y48.639 E0.0993
G1 X68.733 Y46.378 E0.1262
G1 X71.636 Y44.617 E0.1242
G1 X74.672 Y43.405 E0.1196
G1 X77.694 Y42.723 E0.1133
G1 X80.935 Y42.511 E0.1188
G1 X83.467 Y42.713 E0.0929
G1 X87.104 Y43.588 E0.1369
G1 X89.938 Y44.799 E0.1128
G1 X92.418 Y46.334 E0.1067
G1 X94.903 Y48.456 E0.1196
G1 X96.832 Y50.704 E0.1084
G1 X96.913 Y50.824 E0.0053
G1 X97.014 Y50.606 E0.0088
G1 X97.216 Y50.282 E0.0140
G1 X97.698 Y49.691 E0.0279
G1 X98.089 Y49.334 E0.0194
G1 X98.118 Y48.600 E0.0269
G1 X98.280 Y47.880 E0.0270
G1 X98.527 Y47.272 E0.0240
G1 X98.939 Y46.613 E0.0284
G1 X99.449 Y46.021 E0.0286
G1 X100.264 Y45.350 E0.0386
G1 X100.853 Y45.028 E0.0246
G1 X101.429 Y44.828 E0.0223
G1 X102.121 Y44.700 E0.0257
G1 X102.352 Y44.322 E0.0162
G1 X102.769 Y43.843 E0.0232
G1 X103.246 Y43.438 E0.0229
G1 X103.769 Y43.111 E0.0226
G1 X104.376 Y42.845 E0.0242
G1 X105.019 Y42.653 E0.0246
G1 X105.855 Y42.528 E0.0309
G1 X106.341 Y42.525 E0.0178
G1 X106.715 Y42.571 E0.0138
G1 X107.576 Y42.788 E0.0325
G1 X108.020 Y42.978 E0.0177
G1 X108.326 Y42.820 E0.0126
G1 X108.783 Y42.666 E0.0176
G1 X109.418 Y42.549 E0.0236
G1 X110.404 Y42.543 E0.0361
G1 X110.785 Y42.612 E0.0142
G1 X111.482 Y42.798 E0.0264
G1 X112.347 Y43.180 E0.0346
G1 X113.015 Y43.651 E0.0299
G1 X113.547 Y44.199 E0.0279
G1 X113.896 Y44.705 E0.0225
G1 X114.609 Y44.844 E0.0266
G1 X115.342 Y45.125 E0.0287
G1 X116.100 Y45.603 E0.0328
G1 X116.581 Y46.044 E0.0239
G1 X117.023 Y46.567 E0.0251
G1 X117.499 Y47.337 E0.0331
G1 X117.759 Y48.003 E0.0262
G1 X117.902 Y48.687 E0.0256
G1 X117.929 Y49.099 E0.0151
G1 X117.914 Y49.351 E0.0092
G1 X118.079 Y49.479 E0.0076
G1 X118.543 Y49.960 E0.0245
G1 X118.942 Y50.534 E0.0256
G1 X119.242 Y51.176 E0.0259
G1 X119.451 Y51.928 E0.0286
G1 X119.541 Y52.570 E0.0237
G1 X119.505 Y53.688 E0.0409
G1 X119.352 Y54.329 E0.0241
G1 X119.174 Y54.782 E0.0178
G1 X118.791 Y55.438 E0.0278
G1 X118.882 Y55.710 E0.0105
G1 X118.986 Y56.242 E0.0198
G1 X119.014 Y57.059 E0.0299
G1 X118.933 Y57.626 E0.0210
G1 X118.715 Y58.360 E0.0280
G1 X118.314 Y59.200 E0.0341
G1 X117.883 Y59.818 E0.0276
G1 X117.314 Y60.382 E0.0293
G1 X116.680 Y60.814 E0.0281
G1 X116.237 Y61.027 E0.0180
G1 X116.011 Y61.689 E0.0256
G1 X115.657 Y62.337 E0.0270
G1 X115.154 Y62.957 E0.0292
G1 X114.469 Y63.530 E0.0327
G1 X113.729 Y63.970 E0.0315
G1 X113.145 Y64.205 E0.0230
G1 X112.425 Y64.372 E0.0270
G1 X111.770 Y64.415 E0.0240
G1 X111.318 Y64.384 E0.0166
G1 X111.084 Y64.336 E0.0087
G1 X110.391 Y64.864 E0.0319
G1 X109.615 Y65.240 E0.0315
G1 X108.937 Y65.422 E0.0257
G1 X108.267 Y65.497 E0.0247
G1 X107.597 Y65.489 E0.0245
G1 X106.993 Y65.405 E0.0223
G1 X106.272 Y65.192 E0.0275
G1 X105.730 Y64.937 E0.0219
G1 X105.209 Y64.591 E0.0229
G1 X104.924 Y64.341 E0.0139
G1 X103.968 Y64.411 E0.0351
G1 X103.304 Y64.331 E0.0245
G1 X102.693 Y64.152 E0.0233
G1 X101.900 Y63.763 E0.0323
G1 X101.130 Y63.218 E0.0345
G1 X100.775 Y62.870 E0.0182
G1 X100.529 Y65.821 E0.1083
G1 X99.745 Y69.030 E0.1209
G1 X98.506 Y71.973 E0.1168
G1 X96.954 Y74.489 E0.1082
G1 X94.778 Y77.028 E0.1223
G1 X92.407 Y79.034 E0.1136
G1 X89.678 Y80.689 E0.1168
G1 X90.003 Y80.834 E0.0130
G1 X92.421 Y82.337 E0.1042
G1 X94.954 Y84.510 E0.1221
G1 X97.002 Y86.937 E0.1162
G1 X98.667 Y89.704 E0.1181
G1 X99.811 Y92.522 E0.1113
G1 X100.516 Y95.468 E0.1108
G1 X100.772 Y98.885 E0.1254
G1 X100.490 Y102.039 E0.1159
G1 X99.708 Y105.157 E0.1176
G1 X98.791 Y107.380 E0.0880
G1 X98.488 Y108.014 E0.0257
G1 X96.917 Y110.543 E0.1089
G1 X94.883 Y112.923 E0.1145
G1 X93.012 Y114.530 E0.0902
G1 X93.581 Y114.614 E0.0210
G1 X94.343 Y114.823 E0.0289
G1 X95.066 Y115.140 E0.0289
G1 X95.935 Y115.766 E0.0392
G1 X96.384 Y116.256 E0.0243
G1 X96.693 Y116.714 E0.0202
G1 X96.943 Y116.738 E0.0092
G1 X97.571 Y116.895 E0.0237
G1 X98.207 Y117.163 E0.0253
G1 X98.889 Y117.603 E0.0297
G1 X99.331 Y118.001 E0.0218
G1 X99.729 Y118.452 E0.0220
G1 X100.248 Y119.258 E0.0351
G1 X100.573 Y120.083 E0.0324
G1 X100.685 Y120.628 E0.0204
G1 X100.719 Y121.096 E0.0172
G1 X100.702 Y121.357 E0.0096
G1 X100.938 Y121.539 E0.0109
G1 X101.250 Y121.858 E0.0163
G1 X101.728 Y122.528 E0.0301
G1 X101.996 Y123.085 E0.0226
G1 X102.177 Y123.652 E0.0218
G1 X102.333 Y124.628 E0.0362
G1 X102.306 Y125.599 E0.0355
G1 X102.137 Y126.341 E0.0278
G1 X101.923 Y126.868 E0.0208
G1 X101.586 Y127.434 E0.0241
G1 X101.693 Y127.787 E0.0135
G1 X101.785 Y128.318 E0.0197
G1 X101.806 Y129.004 E0.0251
G1 X101.717 Y129.648 E0.0238
G1 X101.505 Y130.357 E0.0271
G1 X101.105 Y131.198 E0.0341
G1 X100.611 Y131.890 E0.0311
G1 X100.090 Y132.396 E0.0266
G1 X99.533 Y132.780 E0.0248
G1 X99.029 Y133.028 E0.0206
G1 X98.986 Y133.194 E0.0063
G1 X98.779 Y133.745 E0.0215
G1 X98.483 Y134.284 E0.0225
G1 X97.889 Y135.012 E0.0344
G1 X97.268 Y135.523 E0.0294
G1 X96.508 Y135.974 E0.0323
G1 X95.859 Y136.229 E0.0255
G1 X95.355 Y136.351 E0.0190
G1 X94.553 Y136.415 E0.0294
G1 X94.046 Y136.376 E0.0186
G1 X93.860 Y136.341 E0.0069
G1 X93.731 Y136.462 E0.0065
G1 X93.000 Y136.973 E0.0326
G1 X92.392 Y137.246 E0.0244
G1 X91.848 Y137.399 E0.0207
G1 X91.055 Y137.497 E0.0292
G1 X90.582 Y137.500 E0.0173
G1 X89.756 Y137.400 E0.0304
G1 X89.109 Y137.210 E0.0247
G1 X88.595 Y136.979 E0.0206
G1 X88.043 Y136.626 E0.0240
G1 X87.714 Y136.340 E0.0159
G1 X87.606 Y136.358 E0.0040
G1 X86.628 Y136.403 E0.0358
G1 X85.894 Y136.282 E0.0272
G1 X85.250 Y136.059 E0.0249
G1 X84.800 Y135.829 E0.0185
G1 X83.862 Y135.169 E0.0420
G1 X83.388 Y134.685 E0.0248
G1 X83.057 Y134.226 E0.0207
G1 X82.750 Y133.627 E0.0246
G1 X82.548 Y133.014 E0.0236
G1 X82.310 Y132.919 E0.0094
G1 X81.879 Y132.679 E0.0180
G1 X81.382 Y132.309 E0.0227
G1 X81.180 Y132.493 E0.0100
G1 X80.793 Y132.752 E0.0170
G1 X80.239 Y133.028 E0.0226
G1 X80.198 Y133.186 E0.0060
G1 X79.988 Y133.742 E0.0217
G1 X79.559 Y134.483 E0.0313
G1 X79.166 Y134.945 E0.0222
G1 X78.654 Y135.393 E0.0249
G1 X77.862 Y135.901 E0.0344
G1 X77.140 Y136.205 E0.0287
G1 X76.416 Y136.373 E0.0272
G1 X75.693 Y136.415 E0.0265
G1 X75.306 Y136.383 E0.0142
G1 X75.072 Y136.334 E0.0087
G1 X74.875 Y136.521 E0.0099
G1 X74.318 Y136.911 E0.0249
G1 X73.717 Y137.202 E0.0244
G1 X73.098 Y137.388 E0.0236
G1 X72.327 Y137.493 E0.0285
G1 X71.724 Y137.497 E0.0221
G1 X71.334 Y137.466 E0.0143
G1 X70.368 Y137.224 E0.0364
G1 X69.927 Y137.044 E0.0174
G1 X69.290 Y136.651 E0.0274
G1 X68.921 Y136.339 E0.0177
G1 X68.754 Y136.372 E0.0062
G1 X68.072 Y136.414 E0.0250
G1 X67.320 Y136.333 E0.0277
G1 X66.627 Y136.126 E0.0265
G1 X65.980 Y135.811 E0.0263
G1 X65.327 Y135.377 E0.0287
G1 X64.651 Y134.743 E0.0339
G1 X64.270 Y134.230 E0.0234
G1 X64.011 Y133.749 E0.0200
G1 X63.759 Y133.016 E0.0284
G1 X63.603 Y132.954 E0.0061
G1 X63.083 Y132.674 E0.0216
G1 X62.465 Y132.194 E0.0286
G1 X61.974 Y131.639 E0.0271
G1 X61.554 Y130.957 E0.0293
G1 X61.180 Y130.052 E0.0358
G1 X61.008 Y129.254 E0.0299
G1 X60.987 Y128.588 E0.0244
G1 X61.068 Y127.934 E0.0241
G1 X61.217 Y127.430 E0.0192
G1 X61.093 Y127.262 E0.0076
G1 X60.804 Y126.727 E0.0222
G1 X60.585 Y126.109 E0.0240
G1 X60.454 Y125.349 E0.0282
G1 X60.455 Y124.619 E0.0267
G1 X60.530 Y124.025 E0.0219
G1 X60.779 Y123.130 E0.0340
G1 X60.814 Y123.042 E0.0035
G1 X61.268 Y122.216 E0.0345
G1 X61.794 Y121.594 E0.0298
G1 X62.099 Y121.337 E0.0146
G1 X62.124 Y120.568 E0.0281
G1 X62.318 Y119.767 E0.0302
G1 X62.643 Y119.056 E0.0286
G1 X62.980 Y118.560 E0.0219
G1 X63.548 Y117.924 E0.0312
G1 X64.171 Y117.412 E0.0295
G1 X64.767 Y117.068 E0.0252
G1 X65.505 Y116.807 E0.0286
G1 X66.119 Y116.697 E0.0228
G1 X66.298 Y116.400 E0.0127
G1 X66.709 Y115.904 E0.0236
G1 X67.165 Y115.498 E0.0223
G1 X67.673 Y115.163 E0.0223
G1 X68.318 Y114.866 E0.0260
G1 X68.510 Y114.806 E0.0074
G1 X66.355 Y112.952 E0.1040
G1 X64.211 Y110.425 E0.1212
G1 X62.565 Y107.699 E0.1165
G1 X61.464 Y105.033 E0.1055
G1 X60.695 Y101.893 E0.1183
G1 X60.438 Y98.555 E0.1225
G1 X60.731 Y95.249 E0.1214
G1 X61.477 Y92.285 E0.1118
G1 X62.660 Y89.473 E0.1116
G1 X64.213 Y86.930 E0.1090
G1 X66.433 Y84.333 E0.1250
G1 X68.803 Y82.329 E0.1136
G1 X71.524 Y80.677 E0.1165
G1 X71.341 Y80.594 E0.0074
G1 X68.970 Y79.154 E0.1015
G1 X66.359 Y76.953 E0.1249
G1 X64.167 Y74.364 E0.1241
G1 X62.593 Y71.752 E0.1116
G1 X61.424 Y68.908 E0.1125
G1 X60.696 Y65.894 E0.1134
G1 X60.435 Y62.489 E0.1249
G1 X60.648 Y59.737 E0.1010
G1 X61.469 Y56.318 E0.1286
G1 X62.762 Y53.278 E0.1209
G1 X64.319 Y50.794 E0.1073
G0 F1800 X64.372 Y50.710
M204 S1300.00
G0 F6000 X64.632 Y50.930
G0 F6000 X64.708 Y50.994
M204 S1000.00
G1 F1800 X66.463 Y48.923 E0.0993
G1 X68.962 Y46.754 E0.1211
G1 X71.800 Y45.025 E0.1216
G1 X74.770 Y43.834 E0.1171
G1 X77.723 Y43.162 E0.1108
G1 X80.900 Y42.950 E0.1165
G1 X83.432 Y43.152 E0.0929
G1 X87.000 Y44.016 E0.1343
G1 X89.707 Y45.174 E0.1077
G1 X92.132 Y46.669 E0.1042
G1 X94.617 Y48.791 E0.1196
G1 X96.498 Y50.990 E0.1059
G1 X97.029 Y51.847 E0.0369
G1 X97.187 Y51.290 E0.0212
G1 X97.389 Y50.835 E0.0182
G1 X97.557 Y50.560 E0.0118
G1 X98.039 Y49.969 E0.0279
G1 X98.382 Y49.662 E0.0168
G1 X98.532 Y49.556 E0.0067
G1 X98.548 Y48.693 E0.0316
G1 X98.688 Y48.046 E0.0242
G1 X98.935 Y47.438 E0.0240
G1 X99.310 Y46.850 E0.0255
G1 X99.781 Y46.310 E0.0262
G1 X100.542 Y45.691 E0.0359
G1 X101.059 Y45.417 E0.0214
G1 X101.513 Y45.260 E0.0176
G1 X102.132 Y45.139 E0.0231
G1 X102.378 Y45.127 E0.0090
G1 X102.687 Y44.608 E0.0221
G1 X103.056 Y44.176 E0.0208
G1 X103.479 Y43.811 E0.0204
G1 X104.002 Y43.484 E0.0226
G1 X104.549 Y43.250 E0.0218
G1 X105.143 Y43.075 E0.0227
G1 X105.861 Y42.968 E0.0266
G1 X106.291 Y42.962 E0.0157
G1 X106.607 Y42.998 E0.0116
G1 X107.468 Y43.215 E0.0325
G1 X107.823 Y43.371 E0.0142
G1 X108.012 Y43.483 E0.0080
G1 X108.467 Y43.237 E0.0189
G1 X108.924 Y43.083 E0.0176
G1 X109.424 Y42.989 E0.0186
G1 X110.327 Y42.976 E0.0330
G1 X110.672 Y43.037 E0.0128
G1 X111.369 Y43.223 E0.0264
G1 X112.093 Y43.540 E0.0289
G1 X112.761 Y44.011 E0.0299
G1 X113.228 Y44.502 E0.0248
G1 X113.537 Y44.959 E0.0202
G1 X113.625 Y45.130 E0.0070
G1 X113.864 Y45.143 E0.0088
G1 X114.452 Y45.255 E0.0219
G1 X115.185 Y45.536 E0.0287
G1 X115.861 Y45.973 E0.0295
G1 X116.247 Y46.330 E0.0192
G1 X116.651 Y46.801 E0.0227
G1 X117.089 Y47.497 E0.0301
G1 X117.349 Y48.163 E0.0262
G1 X117.463 Y48.716 E0.0207
G1 X117.490 Y49.128 E0.0151
G1 X117.456 Y49.560 E0.0159
G1 X117.765 Y49.788 E0.0140
G1 X118.184 Y50.214 E0.0219
G1 X118.545 Y50.724 E0.0229
G1 X118.819 Y51.296 E0.0232
G1 X119.015 Y51.989 E0.0263
G1 X119.105 Y52.631 E0.0237
G1 X119.076 Y53.589 E0.0351
G1 X118.942 Y54.168 E0.0217
G1 X118.764 Y54.621 E0.0178
G1 X118.468 Y55.138 E0.0218
G1 X118.295 Y55.354 E0.0101
G1 X118.450 Y55.794 E0.0171
G1 X118.554 Y56.326 E0.0198
G1 X118.578 Y57.001 E0.0247
G1 X118.511 Y57.501 E0.0185
G1 X118.293 Y58.235 E0.0280
G1 X117.918 Y59.008 E0.0314
G1 X117.524 Y59.563 E0.0249
G1 X117.007 Y60.067 E0.0264
G1 X116.436 Y60.448 E0.0251
G1 X116.028 Y60.639 E0.0165
G1 X115.865 Y60.693 E0.0063
G1 X115.838 Y60.832 E0.0052
G1 X115.625 Y61.478 E0.0249
G1 X115.271 Y62.126 E0.0270
G1 X114.815 Y62.676 E0.0261
G1 X114.190 Y63.190 E0.0296
G1 X113.561 Y63.563 E0.0268
G1 X113.042 Y63.777 E0.0205
G1 X112.393 Y63.933 E0.0244
G1 X111.800 Y63.976 E0.0218
G1 X111.348 Y63.945 E0.0166
G1 X110.941 Y63.854 E0.0153
G1 X110.766 Y64.032 E0.0091
G1 X110.195 Y64.470 E0.0263
G1 X109.498 Y64.816 E0.0285
G1 X108.886 Y64.985 E0.0232
G1 X108.270 Y65.057 E0.0227
G1 X107.654 Y65.053 E0.0225
G1 X107.115 Y64.982 E0.0199
G1 X106.456 Y64.792 E0.0251
G1 X105.973 Y64.570 E0.0194
G1 X105.452 Y64.224 E0.0229
G1 X105.156 Y63.957 E0.0146
G1 X105.067 Y63.858 E0.0049
G1 X104.795 Y63.919 E0.0102
G1 X104.017 Y63.974 E0.0285
G1 X103.424 Y63.908 E0.0218
G1 X102.884 Y63.755 E0.0205
G1 X102.154 Y63.404 E0.0296
G1 X101.384 Y62.859 E0.0345
G1 X100.948 Y62.419 E0.0227
G1 X100.620 Y61.964 E0.0205
G1 X100.400 Y61.543 E0.0174
G1 X100.196 Y60.955 E0.0228
G1 X100.336 Y62.835 E0.0690
G1 X100.101 Y65.717 E0.1058
G1 X99.339 Y68.859 E0.1183
G1 X98.100 Y71.802 E0.1168
G1 X96.580 Y74.257 E0.1056
G1 X94.493 Y76.693 E0.1174
G1 X92.179 Y78.658 E0.1111
G1 X89.416 Y80.333 E0.1182
G1 X88.568 Y80.689 E0.0336
G1 X89.771 Y81.208 E0.0479
G1 X92.135 Y82.671 E0.1017
G1 X94.618 Y84.794 E0.1195
G1 X96.666 Y87.221 E0.1162
G1 X98.260 Y89.870 E0.1131
G1 X99.383 Y92.624 E0.1088
G1 X100.088 Y95.570 E0.1108
G1 X100.334 Y98.847 E0.1202
G1 X100.063 Y101.933 E0.1133
G1 X99.301 Y104.989 E0.1152
G1 X98.394 Y107.190 E0.0871
G1 X98.091 Y107.824 E0.0257
G1 X96.543 Y110.310 E0.1071
G1 X94.549 Y112.637 E0.1121
G1 X92.242 Y114.610 E0.1111
G1 X91.033 Y115.354 E0.0519
G1 X91.257 Y115.237 E0.0092
G1 X91.656 Y115.098 E0.0155
G1 X92.137 Y114.998 E0.0180
G1 X93.033 Y114.970 E0.0328
G1 X93.465 Y115.038 E0.0160
G1 X94.227 Y115.247 E0.0289
G1 X94.886 Y115.542 E0.0264
G1 X95.613 Y116.065 E0.0328
G1 X96.019 Y116.502 E0.0218
G1 X96.329 Y116.962 E0.0203
G1 X96.417 Y117.135 E0.0071
G1 X96.840 Y117.166 E0.0155
G1 X97.404 Y117.302 E0.0212
G1 X97.968 Y117.533 E0.0223
G1 X98.650 Y117.973 E0.0297
G1 X99.033 Y118.325 E0.0190
G1 X99.398 Y118.742 E0.0203
G1 X99.840 Y119.423 E0.0297
G1 X100.143 Y120.174 E0.0296
G1 X100.246 Y120.660 E0.0182
G1 X100.280 Y121.128 E0.0172
G1 X100.243 Y121.563 E0.0160
G1 X100.623 Y121.847 E0.0174
G1 X100.935 Y122.166 E0.0163
G1 X101.332 Y122.719 E0.0249
G1 X101.600 Y123.276 E0.0226
G1 X101.757 Y123.782 E0.0194
G1 X101.893 Y124.620 E0.0311
G1 X101.877 Y125.501 E0.0322
G1 X101.708 Y126.243 E0.0278
G1 X101.517 Y126.698 E0.0181
G1 X101.245 Y127.156 E0.0195
G1 X101.088 Y127.349 E0.0091
G1 X101.260 Y127.866 E0.0199
G1 X101.345 Y128.331 E0.0173
G1 X101.366 Y129.017 E0.0251
G1 X101.282 Y129.584 E0.0210
G1 X101.106 Y130.171 E0.0224
G1 X100.745 Y130.945 E0.0312
G1 X100.304 Y131.574 E0.0281
G1 X99.783 Y132.080 E0.0266
G1 X99.287 Y132.415 E0.0219
G1 X98.891 Y132.610 E0.0161
G1 X98.645 Y132.691 E0.0095
G1 X98.574 Y133.039 E0.0130
G1 X98.367 Y133.590 E0.0215
G1 X98.140 Y134.009 E0.0174
G1 X97.607 Y134.674 E0.0312
G1 X97.041 Y135.146 E0.0270
G1 X96.345 Y135.565 E0.0297
G1 X95.755 Y135.801 E0.0232
G1 X95.251 Y135.923 E0.0190
G1 X94.521 Y135.976 E0.0268
G1 X94.084 Y135.938 E0.0160
G1 X93.717 Y135.861 E0.0137
G1 X93.476 Y136.104 E0.0125
G1 X92.817 Y136.573 E0.0296
G1 X92.273 Y136.822 E0.0219
G1 X91.729 Y136.975 E0.0207
G1 X91.004 Y137.060 E0.0267
G1 X90.582 Y137.060 E0.0154
G1 X89.811 Y136.963 E0.0284
G1 X89.237 Y136.789 E0.0219
G1 X88.778 Y136.579 E0.0185
G1 X88.325 Y136.288 E0.0197
G1 X88.059 Y136.066 E0.0127
G1 X87.864 Y135.856 E0.0105
G1 X87.582 Y135.919 E0.0106
G1 X86.696 Y135.968 E0.0325
G1 X86.035 Y135.865 E0.0245
G1 X85.446 Y135.665 E0.0228
G1 X85.051 Y135.468 E0.0161
G1 X84.174 Y134.859 E0.0391
G1 X83.742 Y134.424 E0.0224
G1 X83.447 Y134.023 E0.0182
G1 X83.166 Y133.484 E0.0222
G1 X82.985 Y132.956 E0.0204
G1 X82.934 Y132.687 E0.0100
G1 X82.524 Y132.535 E0.0160
G1 X82.093 Y132.295 E0.0180
G1 X81.645 Y131.956 E0.0206
G1 X81.389 Y131.694 E0.0134
G1 X80.935 Y132.127 E0.0230
G1 X80.548 Y132.386 E0.0170
G1 X80.101 Y132.610 E0.0183
