;Sliced by ideaMaker 4.3.3.6560, 2023-12-04 00:43:03 UTC-0600
;Dimension: 180.000 180.000 180.000 0.400
;Plate Shape: 0
;Origin Center: 0
;Extruder Offset #1: 25.000 0.000
;Filament Diameter #1: 1.750
;Filament Diameter #2: 1.750
;Filament Compensation #1: 94.00
;Filament Compensation #2: 90.00
;Filament Density #1: 1240.00
;Filament Density #2: 1240.00
;Filament Type #1: PLA
;Filament Type #2: 
;Filament Name #1: [Sunlu] CF PLA 1.75mm
;Filament Name #2: 
;Firmware: Marlin
;Bounding Box: 70.909 109.096 58.920 120.000 0.000 27.920
;Model Gap: 0.000
M221 T0 S94.00
M140 S55.00
M104 T0 S201.00
M109 T0 S201.00
T0
M190 S55.00
G28              			; home all axes
M83            			; set extrusion to relative
M117 Purge extruder
G1 Z5 F3000            		; raise Z
G1 X5 Y5 Z0.2 F3000          	; go intro start pos
G1 X60 E9 F800        		; thick line
G1 X90 E5 F1000          		; medium line
G1 X120 E3.5 F1200        	  	; slim line
G1 X118 E-0.2 Z0.5 F1500        	; wipe
G92 E0              		; reset extruder
;TOTAL_NUM: 1
;PRINTING_TIME: 0
;REMAINING_TIME: 2675
M83
;LAYER:0
;Z:0.200
;HEIGHT:0.200
M106 S0
;PRINTING: NON-OBJECT
;PRINTING_ID: -1
G1 F2400 E-0.4000
M204 S1300.00
M205 X7.00 Y7.00
G0 F6000 X72.003 Y60.148
G0 F900 Z0.200
G0 F6000 X72.079 Y60.212
M204 S1000.00
;TYPE:SKIRT
;WIDTH:0.440
G1 F2400 E0.4000
G1 F1800 X72.642 Y59.719 E0.0274
G1 X72.939 Y59.524 E0.0130
G1 X73.409 Y59.277 E0.0194
G1 X74.245 Y59.005 E0.0322
G1 X74.858 Y58.925 E0.0226
G1 X81.078 Y58.922 E0.2276
G1 X82.185 Y59.130 E0.0412
G1 X82.377 Y59.186 E0.0073
G1 X82.934 Y59.447 E0.0225
G1 X83.409 Y59.752 E0.0207
G1 X83.959 Y60.250 E0.0271
G1 X84.392 Y60.802 E0.0257
G1 X84.816 Y61.640 E0.0344
G1 X85.004 Y62.293 E0.0249
G1 X85.095 Y63.089 E0.0293
G1 X85.070 Y73.200 E0.3699
G1 X84.930 Y73.986 E0.0292
G1 X84.687 Y74.665 E0.0264
G1 X84.381 Y75.218 E0.0231
G1 X84.046 Y75.659 E0.0203
G1 X83.513 Y76.165 E0.0269
G1 X83.167 Y76.411 E0.0155
G1 X82.346 Y76.817 E0.0335
G1 X82.180 Y76.872 E0.0064
G1 X82.180 Y84.820 E0.2908
G1 X97.820 Y84.820 E0.5722
G1 X97.820 Y76.875 E0.2907
G1 X97.182 Y76.614 E0.0252
G1 X96.643 Y76.282 E0.0232
G1 X95.957 Y75.656 E0.0340
G1 X95.515 Y75.050 E0.0274
G1 X95.245 Y74.514 E0.0220
G1 X95.033 Y73.861 E0.0251
G1 X94.930 Y73.226 E0.0235
G1 X94.907 Y63.088 E0.3709
G1 X95.046 Y62.085 E0.0370
G1 X95.243 Y61.490 E0.0229
G1 X95.454 Y61.055 E0.0177
G1 X95.811 Y60.518 E0.0236
G1 X96.149 Y60.135 E0.0187
G1 X96.814 Y59.603 E0.0312
G1 X97.395 Y59.284 E0.0242
G1 X98.017 Y59.059 E0.0242
G1 X98.931 Y58.920 E0.0338
G1 X105.150 Y58.928 E0.2275
G1 X105.873 Y59.036 E0.0267
G1 X106.584 Y59.279 E0.0275
G1 X107.388 Y59.738 E0.0339
G1 X107.569 Y59.881 E0.0084
G1 X107.945 Y60.232 E0.0188
G1 X108.446 Y60.886 E0.0301
G1 X108.762 Y61.507 E0.0255
G1 X109.009 Y62.331 E0.0315
G1 X109.095 Y63.088 E0.0279
G1 X109.074 Y71.744 E0.3167
G1 X108.946 Y72.476 E0.0272
G1 X108.723 Y73.117 E0.0248
G1 X108.243 Y73.941 E0.0349
G1 X108.180 Y74.026 E0.0039
G1 X108.132 Y91.496 E0.6392
G1 X107.976 Y92.219 E0.0271
G1 X107.718 Y92.869 E0.0256
G1 X107.332 Y93.500 E0.0271
G1 X106.991 Y93.898 E0.0192
G1 X106.459 Y94.360 E0.0258
G1 X106.031 Y94.633 E0.0186
G1 X105.588 Y94.849 E0.0180
G1 X105.312 Y94.948 E0.0107
G1 X105.984 Y95.069 E0.0250
G1 X106.759 Y95.359 E0.0303
G1 X107.366 Y95.725 E0.0259
G1 X107.939 Y96.226 E0.0278
G1 X108.332 Y96.710 E0.0228
G1 X108.591 Y97.138 E0.0183
G1 X108.834 Y97.692 E0.0221
G1 X109.053 Y98.572 E0.0332
G1 X109.095 Y99.087 E0.0189
G1 X109.096 Y112.960 E0.5076
G1 X109.026 Y113.610 E0.0239
G1 X108.914 Y114.079 E0.0176
G1 X108.678 Y114.694 E0.0241
G1 X108.469 Y115.085 E0.0162
G1 X107.588 Y116.112 E0.0495
G1 X107.206 Y116.393 E0.0173
G1 X106.848 Y116.602 E0.0152
G1 X105.969 Y116.941 E0.0345
G1 X105.343 Y117.064 E0.0233
G1 X104.956 Y117.090 E0.0142
G1 X75.085 Y117.093 E1.0929
G1 X73.717 Y116.844 E0.0509
G1 X73.212 Y116.633 E0.0200
G1 X72.888 Y116.453 E0.0136
G1 X72.140 Y115.851 E0.0351
G1 X71.590 Y115.171 E0.0320
G1 X71.269 Y114.571 E0.0249
G1 X71.042 Y113.892 E0.0262
G1 X70.918 Y113.095 E0.0295
G1 X70.909 Y99.046 E0.5140
G1 X70.967 Y98.461 E0.0215
G1 X71.129 Y97.809 E0.0246
G1 X71.276 Y97.413 E0.0155
G1 X71.706 Y96.665 E0.0316
G1 X72.183 Y96.101 E0.0270
G1 X72.680 Y95.692 E0.0235
G1 X73.370 Y95.299 E0.0291
G1 X74.159 Y95.027 E0.0305
G1 X74.711 Y94.945 E0.0204
G1 X74.037 Y94.664 E0.0267
G1 X73.443 Y94.282 E0.0258
G1 X72.974 Y93.865 E0.0230
G1 X72.691 Y93.524 E0.0162
G1 X72.175 Y92.640 E0.0374
G1 X71.949 Y91.985 E0.0254
G1 X71.845 Y91.400 E0.0217
G1 X71.820 Y91.000 E0.0147
G1 X71.820 Y74.025 E0.6210
G1 X71.637 Y73.778 E0.0112
G1 X71.381 Y73.343 E0.0185
G1 X71.171 Y72.870 E0.0189
G1 X71.018 Y72.331 E0.0205
G1 X70.911 Y71.514 E0.0301
G1 X70.920 Y62.940 E0.3137
G1 X71.114 Y61.848 E0.0406
G1 X71.350 Y61.247 E0.0236
G1 X71.535 Y60.910 E0.0141
G1 X72.018 Y60.290 E0.0288
G0 F1800 X72.079 Y60.212
M204 S1300.00
G0 F6000 X72.304 Y60.467
G0 F6000 X72.370 Y60.542
M204 S1000.00
G1 F1800 X72.887 Y60.085 E0.0252
G1 X73.144 Y59.913 E0.0113
G1 X73.614 Y59.666 E0.0194
G1 X74.305 Y59.441 E0.0266
G1 X74.858 Y59.365 E0.0204
G1 X81.078 Y59.362 E0.2276
G1 X82.101 Y59.562 E0.0381
G1 X82.248 Y59.607 E0.0056
G1 X82.744 Y59.844 E0.0201
G1 X83.169 Y60.121 E0.0186
G1 X83.661 Y60.574 E0.0245
G1 X84.043 Y61.070 E0.0229
G1 X84.422 Y61.835 E0.0312
G1 X84.580 Y62.410 E0.0218
G1 X84.655 Y63.088 E0.0250
G1 X84.637 Y73.123 E0.3671
G1 X84.497 Y73.909 E0.0292
G1 X84.274 Y74.512 E0.0235
G1 X83.998 Y75.002 E0.0206
G1 X83.698 Y75.389 E0.0179
G1 X83.212 Y75.844 E0.0244
G1 X82.916 Y76.049 E0.0132
G1 X82.153 Y76.422 E0.0311
G1 X81.740 Y76.540 E0.0157
G1 X81.740 Y85.260 E0.3190
G1 X98.260 Y85.260 E0.6044
G1 X98.260 Y76.532 E0.3193
G1 X98.002 Y76.474 E0.0097
G1 X97.413 Y76.239 E0.0232
G1 X96.874 Y75.907 E0.0232
G1 X96.310 Y75.394 E0.0279
G1 X95.908 Y74.852 E0.0247
G1 X95.638 Y74.316 E0.0220
G1 X95.453 Y73.729 E0.0225
G1 X95.365 Y73.159 E0.0211
G1 X95.347 Y63.087 E0.3685
G1 X95.465 Y62.220 E0.0320
G1 X95.639 Y61.682 E0.0207
G1 X95.850 Y61.247 E0.0177
G1 X96.141 Y60.809 E0.0192
G1 X96.479 Y60.426 E0.0187
G1 X97.026 Y59.989 E0.0256
G1 X97.607 Y59.670 E0.0242
G1 X98.163 Y59.474 E0.0216
G1 X98.930 Y59.360 E0.0284
G1 X105.149 Y59.368 E0.2275
G1 X105.805 Y59.471 E0.0243
G1 X106.368 Y59.662 E0.0218
G1 X107.117 Y60.084 E0.0315
G1 X107.269 Y60.203 E0.0071
G1 X107.645 Y60.554 E0.0188
G1 X108.095 Y61.151 E0.0274
G1 X108.368 Y61.702 E0.0225
G1 X108.587 Y62.454 E0.0287
G1 X108.655 Y63.087 E0.0233
G1 X108.640 Y71.672 E0.3141
G1 X108.530 Y72.331 E0.0244
G1 X108.307 Y72.972 E0.0248
G1 X107.865 Y73.716 E0.0317
G1 X107.740 Y73.866 E0.0071
G1 X107.701 Y91.407 E0.6418
G1 X107.567 Y92.057 E0.0243
G1 X107.309 Y92.707 E0.0256
G1 X106.995 Y93.217 E0.0219
G1 X106.700 Y93.568 E0.0168
G1 X106.220 Y93.991 E0.0234
G1 X105.838 Y94.238 E0.0166
G1 X105.395 Y94.454 E0.0180
G1 X104.962 Y94.604 E0.0168
G1 X104.740 Y94.649 E0.0083
G1 X104.740 Y95.355 E0.0258
G1 X105.130 Y95.364 E0.0143
G1 X105.834 Y95.483 E0.0261
G1 X106.532 Y95.736 E0.0272
G1 X107.139 Y96.102 E0.0259
G1 X107.646 Y96.554 E0.0249
G1 X107.957 Y96.940 E0.0181
G1 X108.190 Y97.319 E0.0163
G1 X108.408 Y97.801 E0.0194
G1 X108.615 Y98.609 E0.0305
G1 X108.655 Y99.087 E0.0175
G1 X108.656 Y112.960 E0.5076
G1 X108.589 Y113.561 E0.0221
G1 X108.487 Y113.974 E0.0156
G1 X108.268 Y114.533 E0.0220
G1 X108.082 Y114.875 E0.0142
G1 X107.325 Y115.759 E0.0426
G1 X106.984 Y116.013 E0.0156
G1 X106.626 Y116.222 E0.0152
G1 X105.882 Y116.510 E0.0292
G1 X105.312 Y116.625 E0.0213
G1 X104.956 Y116.650 E0.0131
G1 X75.085 Y116.653 E1.0929
G1 X73.885 Y116.437 E0.0446
G1 X73.426 Y116.248 E0.0182
G1 X73.102 Y116.068 E0.0136
G1 X72.418 Y115.510 E0.0323
G1 X71.976 Y114.959 E0.0258
G1 X71.686 Y114.431 E0.0220
G1 X71.459 Y113.752 E0.0262
G1 X71.353 Y113.031 E0.0267
G1 X71.347 Y99.086 E0.5102
G1 X71.394 Y98.567 E0.0191
G1 X71.556 Y97.915 E0.0246
G1 X71.687 Y97.569 E0.0135
G1 X72.086 Y96.887 E0.0289
G1 X72.516 Y96.388 E0.0241
G1 X72.898 Y96.074 E0.0181
G1 X73.588 Y95.681 E0.0291
G1 X74.298 Y95.445 E0.0274
G1 X74.975 Y95.353 E0.0250
G1 X75.260 Y95.349 E0.0104
G1 X75.260 Y94.636 E0.0261
G1 X74.963 Y94.572 E0.0111
G1 X74.275 Y94.294 E0.0271
G1 X73.681 Y93.912 E0.0258
G1 X73.270 Y93.539 E0.0203
G1 X73.033 Y93.247 E0.0138
G1 X72.590 Y92.493 E0.0320
G1 X72.382 Y91.906 E0.0228
G1 X72.284 Y91.372 E0.0199
G1 X72.260 Y91.000 E0.0136
G1 X72.260 Y73.878 E0.6264
G1 X72.016 Y73.555 E0.0148
G1 X71.760 Y73.120 E0.0185
G1 X71.574 Y72.694 E0.0170
G1 X71.454 Y72.272 E0.0161
G1 X71.351 Y71.514 E0.0280
G1 X71.360 Y62.940 E0.3137
G1 X71.525 Y62.006 E0.0347
G1 X71.736 Y61.459 E0.0214
G1 X71.921 Y61.122 E0.0141
G1 X72.309 Y60.621 E0.0232
G0 F1800 X72.370 Y60.542
M204 S1300.00
G0 F6000 X72.597 Y60.796
G0 F6000 X72.663 Y60.870
M204 S1000.00
G1 F1800 X73.135 Y60.448 E0.0232
G1 X73.349 Y60.302 E0.0095
G1 X73.819 Y60.055 E0.0194
G1 X74.368 Y59.876 E0.0211
G1 X74.858 Y59.805 E0.0181
G1 X81.078 Y59.802 E0.2276
G1 X82.013 Y59.993 E0.0349
G1 X82.110 Y60.025 E0.0037
G1 X82.552 Y60.240 E0.0180
G1 X82.926 Y60.488 E0.0164
G1 X83.360 Y60.895 E0.0218
G1 X83.692 Y61.335 E0.0202
G1 X84.026 Y62.026 E0.0281
G1 X84.154 Y62.520 E0.0187
G1 X84.215 Y63.087 E0.0209
G1 X84.203 Y73.050 E0.3645
G1 X84.084 Y73.756 E0.0262
G1 X83.861 Y74.359 E0.0235
G1 X83.617 Y74.783 E0.0179
G1 X83.353 Y75.116 E0.0155
G1 X82.961 Y75.482 E0.0196
G1 X82.665 Y75.687 E0.0132
G1 X81.962 Y76.026 E0.0286
G1 X81.478 Y76.155 E0.0183
G1 X81.300 Y76.177 E0.0066
G1 X81.300 Y85.700 E0.3484
G1 X98.700 Y85.700 E0.6366
G1 X98.700 Y76.172 E0.3486
G1 X98.161 Y76.064 E0.0201
G1 X97.644 Y75.864 E0.0203
G1 X97.105 Y75.532 E0.0232
G1 X96.661 Y75.128 E0.0220
G1 X96.299 Y74.650 E0.0219
G1 X96.058 Y74.184 E0.0192
G1 X95.873 Y73.597 E0.0225
G1 X95.800 Y73.096 E0.0185
G1 X95.787 Y63.086 E0.3662
G1 X95.885 Y62.352 E0.0271
G1 X96.035 Y61.874 E0.0183
G1 X96.246 Y61.439 E0.0177
G1 X96.471 Y61.100 E0.0149
G1 X96.809 Y60.717 E0.0187
G1 X97.238 Y60.375 E0.0201
G1 X97.819 Y60.056 E0.0242
G1 X98.305 Y59.890 E0.0188
G1 X98.929 Y59.800 E0.0231
G1 X105.148 Y59.808 E0.2275
G1 X105.733 Y59.905 E0.0217
G1 X106.154 Y60.046 E0.0162
G1 X106.850 Y60.434 E0.0292
G1 X106.969 Y60.525 E0.0055
G1 X107.345 Y60.876 E0.0188
G1 X107.703 Y61.351 E0.0218
G1 X107.947 Y61.829 E0.0196
G1 X108.150 Y62.503 E0.0258
G1 X108.215 Y63.087 E0.0215
G1 X108.206 Y71.600 E0.3115
G1 X108.096 Y72.259 E0.0244
G1 X107.893 Y72.823 E0.0219
G1 X107.489 Y73.488 E0.0285
G1 X107.300 Y73.697 E0.0103
G1 X107.270 Y91.318 E0.6447
G1 X107.136 Y91.968 E0.0243
G1 X106.902 Y92.541 E0.0226
G1 X106.656 Y92.937 E0.0171
G1 X106.406 Y93.240 E0.0144
G1 X105.979 Y93.623 E0.0210
G1 X105.642 Y93.844 E0.0147
G1 X105.251 Y94.038 E0.0160
G1 X104.818 Y94.188 E0.0168
G1 X104.300 Y94.280 E0.0192
G1 X104.300 Y95.790 E0.0552
G1 X105.057 Y95.798 E0.0277
G1 X105.761 Y95.917 E0.0261
G1 X106.378 Y96.148 E0.0241
G1 X106.907 Y96.476 E0.0228
G1 X107.350 Y96.879 E0.0219
G1 X107.584 Y97.173 E0.0137
G1 X107.792 Y97.506 E0.0144
G1 X107.983 Y97.914 E0.0165
G1 X108.177 Y98.647 E0.0277
G1 X108.215 Y99.087 E0.0162
G1 X108.216 Y112.960 E0.5076
G1 X108.162 Y113.456 E0.0183
G1 X108.060 Y113.869 E0.0156
G1 X107.881 Y114.323 E0.0179
G1 X107.695 Y114.665 E0.0142
G1 X107.060 Y115.408 E0.0358
G1 X106.762 Y115.633 E0.0137
G1 X106.404 Y115.842 E0.0152
G1 X105.792 Y116.079 E0.0240
G1 X105.279 Y116.186 E0.0192
G1 X104.956 Y116.210 E0.0118
G1 X75.085 Y116.213 E1.0929
G1 X74.050 Y116.029 E0.0385
G1 X73.640 Y115.863 E0.0162
G1 X73.316 Y115.683 E0.0136
G1 X72.699 Y115.171 E0.0293
G1 X72.359 Y114.742 E0.0200
G1 X72.103 Y114.291 E0.0190
G1 X71.876 Y113.612 E0.0262
G1 X71.789 Y112.972 E0.0236
G1 X71.787 Y99.086 E0.5080
G1 X71.832 Y98.608 E0.0176
G1 X71.982 Y98.024 E0.0221
G1 X72.067 Y97.791 E0.0091
G1 X72.466 Y97.109 E0.0289
G1 X72.846 Y96.679 E0.0210
G1 X73.119 Y96.454 E0.0129
G1 X73.732 Y96.097 E0.0260
G1 X74.357 Y95.881 E0.0242
G1 X75.034 Y95.789 E0.0250
G1 X75.700 Y95.788 E0.0244
G1 X75.700 Y94.272 E0.0555
G1 X75.123 Y94.162 E0.0215
G1 X74.510 Y93.922 E0.0241
G1 X73.974 Y93.583 E0.0232
G1 X73.607 Y93.256 E0.0180
G1 X73.410 Y93.021 E0.0112
G1 X73.003 Y92.342 E0.0290
G1 X72.814 Y91.824 E0.0202
G1 X72.723 Y91.343 E0.0179
G1 X72.700 Y91.000 E0.0126
G1 X72.700 Y73.700 E0.6329
G1 X72.567 Y73.563 E0.0070
G1 X72.395 Y73.332 E0.0105
G1 X72.139 Y72.897 E0.0185
G1 X71.978 Y72.521 E0.0150
G1 X71.890 Y72.210 E0.0118
G1 X71.791 Y71.514 E0.0257
G1 X71.800 Y62.940 E0.3137
G1 X71.937 Y62.161 E0.0289
G1 X72.122 Y61.671 E0.0192
G1 X72.307 Y61.334 E0.0141
G1 X72.603 Y60.949 E0.0178
G0 F1800 X72.663 Y60.870
M204 S1300.00
G0 F6000 X72.891 Y61.122
G0 F6000 X72.958 Y61.196
M204 S1000.00
G1 F1800 X73.387 Y60.808 E0.0212
G1 X73.554 Y60.691 E0.0075
G1 X74.024 Y60.444 E0.0194
G1 X74.436 Y60.311 E0.0158
G1 X74.858 Y60.245 E0.0156
G1 X81.078 Y60.242 E0.2276
G1 X81.921 Y60.423 E0.0315
G1 X82.309 Y60.607 E0.0157
G1 X82.683 Y60.855 E0.0164
G1 X83.055 Y61.212 E0.0189
G1 X83.338 Y61.596 E0.0175
G1 X83.601 Y62.141 E0.0221
G1 X83.717 Y62.569 E0.0162
G1 X83.775 Y63.087 E0.0191
G1 X83.768 Y72.982 E0.3620
G1 X83.671 Y73.603 E0.0230
G1 X83.448 Y74.206 E0.0235
G1 X83.269 Y74.514 E0.0130
G1 X83.050 Y74.797 E0.0131
G1 X82.705 Y75.124 E0.0174
G1 X82.469 Y75.293 E0.0106
G1 X81.849 Y75.601 E0.0253
G1 X81.365 Y75.730 E0.0183
G1 X80.860 Y75.774 E0.0185
G1 X80.860 Y86.140 E0.3793
G1 X99.140 Y86.140 E0.6688
G1 X99.140 Y75.764 E0.3796
G1 X98.861 Y75.754 E0.0102
G1 X98.315 Y75.652 E0.0203
G1 X97.870 Y75.486 E0.0174
G1 X97.397 Y75.203 E0.0202
G1 X97.009 Y74.859 E0.0190
G1 X96.687 Y74.443 E0.0192
G1 X96.476 Y74.047 E0.0164
G1 X96.308 Y73.534 E0.0197
G1 X96.235 Y73.033 E0.0185
G1 X96.227 Y63.086 E0.3639
G1 X96.306 Y62.480 E0.0224
G1 X96.433 Y62.062 E0.0160
G1 X96.613 Y61.682 E0.0154
G1 X96.838 Y61.343 E0.0149
G1 X97.136 Y61.011 E0.0163
G1 X97.450 Y60.761 E0.0147
G1 X98.031 Y60.442 E0.0242
G1 X98.441 Y60.309 E0.0158
G1 X98.928 Y60.240 E0.0180
G1 X105.147 Y60.248 E0.2275
G1 X105.602 Y60.325 E0.0169
G1 X105.941 Y60.431 E0.0130
G1 X106.590 Y60.789 E0.0271
G1 X106.669 Y60.847 E0.0036
G1 X107.045 Y61.198 E0.0188
G1 X107.314 Y61.557 E0.0164
G1 X107.527 Y61.960 E0.0167
G1 X107.713 Y62.554 E0.0228
G1 X107.775 Y63.087 E0.0196
G1 X107.771 Y71.533 E0.3090
G1 X107.682 Y72.110 E0.0214
G1 X107.479 Y72.674 E0.0219
G1 X107.116 Y73.255 E0.0251
G1 X106.860 Y73.517 E0.0134
G1 X106.839 Y91.229 E0.6480
G1 X106.705 Y91.879 E0.0243
G1 X106.497 Y92.369 E0.0195
G1 X106.313 Y92.661 E0.0126
G1 X106.109 Y92.915 E0.0119
G1 X105.735 Y93.257 E0.0185
G1 X105.446 Y93.450 E0.0127
G1 X105.055 Y93.644 E0.0160
G1 X104.733 Y93.756 E0.0125
G1 X104.315 Y93.838 E0.0156
G1 X103.860 Y93.859 E0.0167
G1 X103.860 Y96.228 E0.0867
G1 X104.989 Y96.233 E0.0413
G1 X105.612 Y96.331 E0.0231
G1 X106.150 Y96.524 E0.0209
G1 X106.614 Y96.805 E0.0198
G1 X107.008 Y97.156 E0.0193
G1 X107.211 Y97.406 E0.0118
G1 X107.419 Y97.739 E0.0144
G1 X107.559 Y98.031 E0.0118
G1 X107.739 Y98.686 E0.0249
G1 X107.775 Y99.087 E0.0147
G1 X107.776 Y112.960 E0.5076
G1 X107.725 Y113.406 E0.0164
G1 X107.634 Y113.759 E0.0133
G1 X107.473 Y114.158 E0.0157
G1 X107.310 Y114.451 E0.0123
G1 X106.792 Y115.059 E0.0292
G1 X106.540 Y115.253 E0.0116
G1 X106.182 Y115.462 E0.0152
G1 X105.700 Y115.649 E0.0189
G1 X105.244 Y115.747 E0.0171
G1 X104.956 Y115.770 E0.0106
G1 X75.085 Y115.773 E1.0929
G1 X74.212 Y115.620 E0.0324
G1 X73.854 Y115.478 E0.0141
G1 X73.530 Y115.298 E0.0136
G1 X73.041 Y114.894 E0.0232
G1 X72.742 Y114.525 E0.0174
G1 X72.486 Y114.074 E0.0190
G1 X72.312 Y113.553 E0.0201
G1 X72.225 Y112.913 E0.0236
G1 X72.227 Y99.086 E0.5059
G1 X72.270 Y98.651 E0.0160
G1 X72.407 Y98.137 E0.0195
G1 X72.479 Y97.946 E0.0075
G1 X72.844 Y97.335 E0.0260
G1 X73.126 Y97.019 E0.0155
G1 X73.399 Y96.794 E0.0129
G1 X73.950 Y96.479 E0.0232
G1 X74.495 Y96.299 E0.0210
G1 X75.034 Y96.229 E0.0199
G1 X76.140 Y96.228 E0.0405
G1 X76.140 Y93.854 E0.0869
G1 X75.820 Y93.847 E0.0117
G1 X75.283 Y93.752 E0.0200
G1 X74.670 Y93.512 E0.0241
G1 X74.215 Y93.215 E0.0199
G1 X73.938 Y92.966 E0.0136
G1 X73.785 Y92.791 E0.0085
G1 X73.415 Y92.186 E0.0259
G1 X73.246 Y91.739 E0.0175
G1 X73.162 Y91.312 E0.0159
G1 X73.140 Y91.000 E0.0114
G1 X73.140 Y73.514 E0.6397
G1 X72.917 Y73.296 E0.0114
